public/avatar/body/169.svg

<svg xmlns:xlink="http://www.w3.org/1999/xlink" height="82" width="84.85" xmlns="http://www.w3.org/2000/svg"><g transform="translate(37.4 42.25)"><use height="38" transform="translate(-11.95 -17.45)" width="32.05" xlink:href="#a"/><use height="38.95" transform="translate(-12.45 -17.95)" width="33.05" xlink:href="#b"/><use height="21.35" transform="translate(-13.5 2.9)" width="35.15" xlink:href="#c"/></g><defs><path d="M27.35 7.4q2.15 4.15 3.55 8.75 1.45 4.7 1.15 9.5-.35 4.95-4.2 8.1-3.8 3.2-8.75 4.05l-2.6.2q-3.6 0-7.05-1.15-4.65-1.6-7.1-5.5Q-.2 27.4.05 23q.2-4.4 2-9.3Q3.85 8.75 7 5.05 10.1 1.3 14.7.1l1.8-.1q1.9.05 3.7.8 4.75 2.05 7.15 6.6" fill="#fff" fill-rule="evenodd" transform="translate(-.05)" id="d"/><path d="M27.35 7.4Q24.95 2.85 20.2.8 17.55-.3 14.7.1 10.1 1.3 7 5.05q-3.15 3.7-4.95 8.65-1.8 4.9-2 9.3-.25 4.4 2.3 8.35 2.45 3.9 7.1 5.5 4.65 1.55 9.65.95 4.95-.85 8.75-4.05 3.85-3.15 4.2-8.1.3-4.8-1.15-9.5-1.4-4.6-3.55-8.75Z" fill="none" stroke="#1e1e1e" stroke-linecap="round" stroke-linejoin="round" transform="translate(.45 .5)" id="e"/><use height="38" width="32.05" xlink:href="#d" id="a"/><use height="38.95" width="33.05" xlink:href="#e" id="b"/><g id="c" fill-rule="evenodd"><path d="m18.3 19.95.05-.05h-.05v.05m1 .05.05-.1-.05.05V20M5.95 22.55l.3.3.1-.2-.4-.1M20.6 3.3q1 .45 1.05 1.65.1.55-.45 1.45l-.1.1.15 1.05v.05l.15 1.95v.6l-.4.5-.55 1.3V12l-1.75 3.05.3.5 1.3 2.35.1.2.05.2-.05.3v.2q.1.75-1.15 1.5-.7 1.8-1.65 2.05h.05l-2.35-.05-1.15 1.1h-.05q-.9.55-1.8-.35-.65.9-1.45.85-.75.05-1.5-.65-.8 1.1-1.7 1-.95.05-1.8-1-1.3 1.05-2.25 1-1.05 0-1.7-.9-1.1.85-1.95.65-.95-.05-1.65-1.25-1.1 1-1.9.85-.95 0-1.6-1-.8.5-1.55.25h.05q-.85-.1-1.4-1.4-1.2.8-1.9.4l-.05-.05-.7-.65-.3-.05-.8-.35-.35-.35-.25-.25-.35-.55.05-.2.75-1.3.25-.45.1-.25 1.4-2-2-3.45-.45-1.25-.45-.65V9.6l.1-1.65-.2-.85.05-.2-.05-.05-.05-.65-.1-.4q-.25-.85.2-1.7l.4-.5q1.35-1.1 2.3-.45.6.2.75 1.3l1 .05q.55.15.75 1.05l.1-.05 1.25-.1q.5.1.8.7l1.3-.1.35.25.4.65q.7-.55 1.3-.35.75.05 1.05.95L.1 7.35q.65.1.85 1.1L2.5 8.4l.55.55q.4-.45.8-.4h.35q.35.05.7.4l.05-.05q.35-.65.8-.75.5-.25 1.2.25.25-.75.75-.9l.75-.1q.15 0 .25.15l.25.1q.25-.95.85-1.15l1.5.1.55-.7q.35-.25.65-.25.55-.15 1.2.35.35-1.05 1.1-1.15h-.05l1.9.05q.1-.8.7-.95h.05q.55-.35 1.3.25l.3-.3.05-.05q.3-.4.85-.55h.7" transform="translate(13.5 -2.9)"/><path d="m20.6 6.9-.35-1.45-.7-.05-.95.35-.85-.45L17 6.35l-.3.15-1.3-.5-.25.2-.8 1.1-.4.15-1.15-.6-1.2 1.25-1.15-.5-.9 1.35L9.3 9l-1-.3-.85 1.15H7.4l-1.25-.6-.85 1.25-.1.1-.1-.05-1-.9-1.3.9-.7-1.2-1.8.4-.65-1.4-1.55.55-.25-.05-.7-1.05-1.1.5-.5-.15-.4-.85-1.2.35-.4-.15-.75-.75-1.2.1-.45-.15-.25-.75-1.35.2-.2-.1-.8-1.4-.7.9-.55 1.15-.15-1.55.1-.6 1.2-.7.8.1.6.7-.1.8 1.3-.25.5 1.25 1.4-.45.65.4.2.7.5-.2.9-.3.75 1.25 1.45-.7.8 1.15 1.7-.45.6 1.35 2-.2.55.85.9-.8 1.1.85.85-1.25 1.4.6L8 8.1l.25-.05 1.05.5.8-1.4 1.45.3 1-1.15 1.45.75.6-1.3 2.45.15.5-1.2 1.35.7.8-.95q.3-.25.7-.35l.75.8-.2 1.15-.35.85m-30.5 8.85.5.15-2.15 3.5.5.3.45-.2.4-1 .8 1.95 1.65-.3 1.4 1.25.85-.1.85-.05 1.15.85.45-.05 1.6-.6.75.7q.7.6 1.55.25l1.3-.25 1.35.6 1.4-.35 1.1-.45.6-1.9.1 2.3v.05h.05l.4.2 1.15-.1.7-.45q-.15-2.65.7-5.2l.65 5.25.5.3 1.1-.65.1-5.05 1.55-.2v.15l.35 5.1.5-.35-.7-4.9 3.25-.95 1.25-.3 1.7 3.05-.3 1.1-1.85 2.15-2.75.1-1.15 1.4-.8-.05-.9-.85-1 1.25-2.1-.8-.4.45-.4.55-.3.15-2.15-1.1q-1.15.8-2.75 1.05L2 22.55l-.05-.05-.05.05-.75.75-.35.25-.4.05-.75-.35-.85-.75-.35-.55-.35.4-1.15.65-.35.1-.35-.2-.9-.7-.4-.4-1.15.65-.5-.35-.9-.8-.3-.7-1.55.9-.75-.4-.3-.55h-.8l-1-.95 2.4-3.85m15.95-3.8 4.05-1.4-4.25 3.15 3.1 2 .65.4-.75-.2-3.65-1-.65-.15-.4-.15-.45.15-.65.2L3 15l-4.6 1.5q2.25-1.25 4.45-2.55l-3.75-2.2 2.8.5.55.15 1.2.25.95-.25 1.45-.45" fill="#ff51a8" transform="translate(13.5 -2.9)"/><path d="m4.1 16.65 5.6.2 2.35-.15-.1 5.05-1.1.65-.5-.3-.65-5.25q-.85 2.55-.7 5.2l-.7.45-.2-5-.95 5.1-.4-.2-.05-.05-.1-2.3-.6 1.9-1.1.45-1.4.35.05-.75.05-.1.5-5.25m9.5-.15h.15l.7 4.9-.5.35-.35-5.1v-.15M2 22.55h-.1l.05-.05.05.05m.15-.4-1.3.25 1.05-4.75.25 4.5m-3.6-.7-1.6.6.5-2 .7-2 .15 1.15.25 2.25m-3.2-.2-.85.05.6-1.3.25 1.25" fill="#ff80bf" transform="translate(13.5 -2.9)"/><path d="m-9.4 15.9 2.4.6q5.55 1.05 11.1.15l-.5 5.25-.1.05.05.05-.05.75-1.35-.6-.25-4.5L.85 22.4q-.85.35-1.55-.25l-.75-.7-.25-2.25-.15-1.15-.7 2-.5 2-.45.05-1.15-.85L-4.9 20l-.6 1.3-.85.1-1.4-1.25-1.65.3-.8-1.95-.4 1-.45.2-.5-.3 2.15-3.5m16.55 6.7.95-5.1.2 5-1.15.1" fill="#ffaed7" transform="translate(13.5 -2.9)"/><path d="m18.6 5.75-1.6.6.75-1.05.85.45m-1.9.75-2.35.8.8-1.1.25-.2 1.3.5m-2.75.95-4.4 1.5.9-1.35 1.15.5 1.2-1.25 1.15.6M9.3 9l-1.85.85.85-1.15 1 .3m-1.9.85-1.65.5-.45.15.85-1.25 1.25.6m-2.3.7-2.7.55L.3 9.75l-2.2-.85 1.55-.55.65 1.4 1.8-.4.7 1.2 1.3-.9 1 .9m-7.25-1.7-1.8-.55 1.1-.5.7 1.05m-2.3-.7-1.6-.5 1.2-.35.4.85m-2-.65-1.95-.65 1.2-.1.75.75m-2.4-.8-1.6-.55 1.35-.2.25.75m-1.8-.65-1.5-.5.7-.9.8 1.4" fill="#ffa8d3" transform="translate(13.5 -2.9)"/><path d="m18.25 8.1.15-1.6 1.25-.5q1 4.3-1.05 8.1l-.55.8-1.5.55.55-1.35q1.05-2.95 1.15-6m-14.6 4.55-.5-.8 1.9-.1-.45.65-.95.25M3 15l.05-.05-.2.95L3 15m.7-.25.45-.15.4.15.3 1.15h-1.4l.25-1.15" fill="#420021" transform="translate(13.5 -2.9)"/><path d="m18.6 5.75.95-.35.7.05.35 1.45.05 1.1q.1 4.1-2.4 7.25l-1.25.3-3.25.95h-.15l-1.55.2-2.35.15-5.6-.2q-5.55.9-11.1-.15l-2.4-.6-.5-.15q-2.9-3.35-2.85-7.85l.05-1.2.55-1.15 1.5.5.2.1 1.6.55.45.15 1.95.65.4.15 1.6.5.5.15 1.8.55.25.05 2.2.85 2.1 1.35 2.7-.55.1.05.1-.1.45-.15 1.65-.5h.05L9.3 9l.25-.05 4.4-1.5.4-.15 2.35-.8.3-.15 1.6-.6m-.2.75-2.05.75q-5.55 1.65-10.3 4.7l-1.45.45.45-.65-1.9.1.5.8-1.2-.25q-4.5-3.45-10.3-4.8l-1.95-.55-2.05-.8q-.65 3.95 1.05 7.5l.9 1.6L-7 16l3.85.5 4.95-.3 1.05-.3.2-.95.65-.2-.25 1.15h1.4l-.3-1.15.65.15.25 1.5 3.15.1h1.65q3.25-.15 6.3-1.05l1.5-.55.55-.8q2.05-3.8 1.05-8.1l-1.25.5" fill="#280014" transform="translate(13.5 -2.9)"/><path d="M8.95 15.7 10.2 14q3.3-3.85 8.05-5.9-.1 3.05-1.15 6l-.55 1.35q-3.05.9-6.3 1.05H8.6l.25-.6.75.2-.65-.4M3 15l-.15.9-1.05.3-4.95.3-.15-.8q-.3-5.65 5.2-3.45l-2.8-.5 3.75 2.2q-2.2 1.3-4.45 2.55L3 15" fill="#54012b" transform="translate(13.5 -2.9)"/><path d="m18.4 6.5-.15 1.6Q13.5 10.15 10.2 14l-1.25 1.7-3.1-2 4.25-3.15-4.05 1.4q4.75-3.05 10.3-4.7l2.05-.75m-9.55 9.4-.25.6-3.15-.1-.25-1.5 3.65 1m-12 .6L-7 16q-1.9-3.15-2.5-6.9l-.3-2.05 1.95.55q5.8 1.35 10.3 4.8l-.55-.15q-5.5-2.2-5.2 3.45l.15.8" fill="#603" transform="translate(13.5 -2.9)"/><path d="m-7 16-2.9-.65-.9-1.6q-1.7-3.55-1.05-7.5l2.05.8.3 2.05q.6 3.75 2.5 6.9" fill="#840042" transform="translate(13.5 -2.9)"/></g></defs></svg>

<?xml version="1.0" encoding="UTF-8" standalone="no"?>
<svg xmlns:xlink="http://www.w3.org/1999/xlink" height="82.0px" width="84.85px" xmlns="http://www.w3.org/2000/svg">
  <g transform="matrix(1.0, 0.0, 0.0, 1.0, 37.4, 42.25)">
    <use height="38.0" transform="matrix(1.0, 0.0, 0.0, 1.0, -11.95, -17.45)" width="32.05" xlink:href="#sprite0"/>
    <use height="38.95" transform="matrix(1.0, 0.0, 0.0, 1.0, -12.45, -17.95)" width="33.05" xlink:href="#sprite1"/>
    <use height="21.35" transform="matrix(1.0, 0.0, 0.0, 1.0, -13.5, 2.9)" width="35.15" xlink:href="#shape2"/>
  </g>
  <defs>
    <g id="sprite0" transform="matrix(1.0, 0.0, 0.0, 1.0, -0.05, 0.0)">
      <use height="38.0" transform="matrix(1.0, 0.0, 0.0, 1.0, 0.05, 0.0)" width="32.05" xlink:href="#shape0"/>
    </g>
    <g id="shape0" transform="matrix(1.0, 0.0, 0.0, 1.0, -0.05, 0.0)">
      <path d="M27.35 7.4 Q29.5 11.55 30.9 16.15 32.35 20.85 32.05 25.65 31.7 30.6 27.85 33.75 24.05 36.95 19.1 37.8 L16.5 38.0 Q12.9 38.0 9.45 36.85 4.8 35.25 2.35 31.35 -0.2 27.4 0.05 23.0 0.25 18.6 2.05 13.7 3.85 8.75 7.0 5.05 10.1 1.3 14.7 0.1 L16.5 0.0 Q18.4 0.05 20.2 0.8 24.95 2.85 27.35 7.4" fill="#ffffff" fill-rule="evenodd" stroke="none"/>
    </g>
    <g id="sprite1" transform="matrix(1.0, 0.0, 0.0, 1.0, 0.45, 0.5)">
      <use height="38.95" transform="matrix(1.0, 0.0, 0.0, 1.0, -0.45, -0.5)" width="33.05" xlink:href="#shape1"/>
    </g>
    <g id="shape1" transform="matrix(1.0, 0.0, 0.0, 1.0, 0.45, 0.5)">
      <path d="M27.35 7.4 Q24.95 2.85 20.2 0.8 17.55 -0.3 14.7 0.1 10.1 1.3 7.0 5.05 3.85 8.75 2.05 13.7 0.25 18.6 0.05 23.0 -0.2 27.4 2.35 31.35 4.8 35.25 9.45 36.85 14.1 38.4 19.1 37.8 24.05 36.95 27.85 33.75 31.7 30.6 32.05 25.65 32.35 20.85 30.9 16.15 29.5 11.55 27.35 7.4 Z" fill="none" stroke="#1e1e1e" stroke-linecap="round" stroke-linejoin="round" stroke-width="1.0"/>
    </g>
    <g id="shape2" transform="matrix(1.0, 0.0, 0.0, 1.0, 13.5, -2.9)">
      <path d="M18.3 19.95 L18.35 19.9 18.3 19.9 18.3 19.95 M19.3 20.0 L19.35 19.9 19.3 19.95 19.3 20.0 M5.95 22.55 L6.25 22.85 6.35 22.65 5.95 22.55 M20.6 3.3 Q21.6 3.75 21.65 4.95 21.75 5.5 21.2 6.4 L21.1 6.5 21.25 7.55 21.25 7.6 21.4 9.55 21.4 9.6 21.4 9.8 21.4 10.15 21.0 10.65 20.45 11.95 20.45 12.0 18.7 15.05 19.0 15.55 20.3 17.9 20.4 18.1 20.45 18.3 20.4 18.6 20.4 18.8 Q20.5 19.55 19.25 20.3 18.55 22.1 17.6 22.35 L17.65 22.35 15.3 22.3 14.15 23.4 14.1 23.4 Q13.2 23.95 12.3 23.05 11.65 23.95 10.85 23.9 10.1 23.95 9.35 23.25 8.55 24.35 7.65 24.25 6.7 24.3 5.85 23.25 4.55 24.3 3.6 24.25 2.55 24.25 1.9 23.35 0.8 24.2 -0.05 24.0 -1.0 23.95 -1.7 22.75 -2.8 23.75 -3.6 23.6 -4.55 23.6 -5.2 22.6 -6.0 23.1 -6.75 22.85 L-6.7 22.85 Q-7.55 22.75 -8.1 21.45 -9.3 22.25 -10.0 21.85 L-10.05 21.8 -10.75 21.15 -11.05 21.1 -11.85 20.75 -12.2 20.4 -12.45 20.15 -12.8 19.6 -12.75 19.4 -12.0 18.1 -11.75 17.65 -11.65 17.4 -10.25 15.4 -12.25 11.95 -12.7 10.7 -13.15 10.05 -13.15 9.95 -13.15 9.65 -13.15 9.6 -13.05 7.95 -13.25 7.1 -13.2 6.9 -13.25 6.85 -13.3 6.2 -13.4 5.8 Q-13.65 4.95 -13.2 4.1 L-12.8 3.6 Q-11.45 2.5 -10.5 3.15 -9.9 3.35 -9.75 4.45 L-8.75 4.5 Q-8.2 4.65 -8.0 5.55 L-7.9 5.5 -6.65 5.4 Q-6.15 5.5 -5.85 6.1 L-4.55 6.0 -4.2 6.25 -3.8 6.9 Q-3.1 6.35 -2.5 6.55 -1.75 6.6 -1.45 7.5 L0.1 7.35 Q0.75 7.45 0.95 8.45 L2.5 8.4 3.05 8.95 Q3.45 8.5 3.85 8.55 L4.2 8.55 Q4.55 8.6 4.9 8.95 L4.95 8.9 Q5.3 8.25 5.75 8.15 6.25 7.9 6.95 8.4 7.2 7.65 7.7 7.5 L8.45 7.4 Q8.6 7.4 8.7 7.55 L8.95 7.65 Q9.2 6.7 9.8 6.5 L11.3 6.6 11.85 5.9 Q12.2 5.65 12.5 5.65 13.05 5.5 13.7 6.0 14.05 4.95 14.8 4.85 L14.75 4.85 16.65 4.9 Q16.75 4.1 17.35 3.95 L17.4 3.95 Q17.95 3.6 18.7 4.2 L19.0 3.9 19.05 3.85 Q19.35 3.45 19.9 3.3 L20.55 3.3 20.6 3.3" fill="#000000" fill-rule="evenodd" stroke="none"/>
      <path d="M20.6 6.9 L20.25 5.45 19.55 5.4 18.6 5.75 17.75 5.3 17.0 6.35 16.7 6.5 15.4 6.0 15.15 6.2 14.35 7.3 13.95 7.45 12.8 6.85 11.6 8.1 10.45 7.6 9.55 8.95 9.3 9.0 8.3 8.7 7.45 9.85 7.4 9.85 6.15 9.25 5.3 10.5 5.2 10.6 5.1 10.55 4.1 9.65 2.8 10.55 2.1 9.35 0.3 9.75 -0.35 8.35 -1.9 8.9 -2.15 8.85 -2.85 7.8 -3.95 8.3 -4.45 8.15 -4.85 7.3 -6.05 7.65 -6.45 7.5 -7.2 6.75 -8.4 6.85 -8.85 6.7 -9.1 5.95 -10.45 6.15 -10.65 6.05 -11.45 4.65 -12.15 5.55 -12.7 6.7 -12.85 5.15 -12.75 4.55 -11.55 3.85 -10.75 3.95 -10.15 4.65 -10.25 5.45 -8.95 5.2 -8.45 6.45 -7.05 6.0 -6.4 6.4 -6.2 7.1 -5.7 6.9 -4.8 6.6 -4.05 7.85 -2.6 7.15 -1.8 8.3 -0.1 7.85 0.5 9.2 2.5 9.0 3.05 9.85 3.95 9.05 5.05 9.9 5.9 8.65 7.3 9.25 8.0 8.1 8.25 8.05 9.3 8.55 10.1 7.15 11.55 7.45 12.55 6.3 14.0 7.05 14.6 5.75 17.05 5.9 17.55 4.7 18.9 5.4 19.7 4.45 Q20.0 4.2 20.4 4.1 L21.15 4.9 20.95 6.05 20.6 6.9 M-9.9 15.75 L-9.4 15.9 -11.55 19.4 -11.05 19.7 -10.6 19.5 -10.2 18.5 -9.4 20.45 -7.75 20.15 -6.35 21.4 -5.5 21.3 -4.65 21.25 -3.5 22.1 -3.05 22.05 -1.45 21.45 -0.7 22.15 Q0.0 22.75 0.85 22.4 L2.15 22.15 3.5 22.75 4.9 22.4 6.0 21.95 6.6 20.05 6.7 22.35 6.7 22.4 6.75 22.4 7.15 22.6 8.3 22.5 9.0 22.05 Q8.85 19.4 9.7 16.85 L10.35 22.1 10.85 22.4 11.95 21.75 12.05 16.7 13.6 16.5 13.6 16.65 13.95 21.75 14.45 21.4 13.75 16.5 17.0 15.55 18.25 15.25 19.95 18.3 19.65 19.4 17.8 21.55 15.05 21.65 13.9 23.05 13.1 23.0 12.2 22.15 11.2 23.4 9.1 22.6 8.7 23.05 8.3 23.6 8.0 23.75 5.85 22.65 Q4.7 23.45 3.1 23.7 L2.0 22.55 1.95 22.5 1.9 22.55 1.15 23.3 0.8 23.55 0.4 23.6 -0.35 23.25 -1.2 22.5 -1.55 21.95 -1.9 22.35 -3.05 23.0 -3.4 23.1 -3.75 22.9 -4.65 22.2 -5.05 21.8 -6.2 22.45 -6.7 22.1 -7.6 21.3 -7.9 20.6 -9.45 21.5 -10.2 21.1 -10.5 20.55 -11.3 20.55 -12.3 19.6 -9.9 15.75 M6.05 11.95 L10.1 10.55 5.85 13.7 8.95 15.7 9.6 16.1 8.85 15.9 5.2 14.9 4.55 14.75 4.15 14.6 3.7 14.75 3.05 14.95 3.0 15.0 -1.6 16.5 Q0.65 15.25 2.85 13.95 L-0.9 11.75 1.9 12.25 2.45 12.4 3.65 12.65 4.6 12.4 6.05 11.95" fill="#ff51a8" fill-rule="evenodd" stroke="none"/>
      <path d="M4.1 16.65 L9.7 16.85 12.05 16.7 11.95 21.75 10.85 22.4 10.35 22.1 9.7 16.85 Q8.85 19.4 9.0 22.05 L8.3 22.5 8.1 17.5 7.15 22.6 6.75 22.4 6.7 22.35 6.6 20.05 6.0 21.95 4.9 22.4 3.5 22.75 3.55 22.0 3.6 21.9 4.1 16.65 M13.6 16.5 L13.75 16.5 14.45 21.4 13.95 21.75 13.6 16.65 13.6 16.5 M2.0 22.55 L1.9 22.55 1.95 22.5 2.0 22.55 M2.15 22.15 L0.85 22.4 1.9 17.65 2.15 22.15 M-1.45 21.45 L-3.05 22.05 -2.55 20.05 -1.85 18.05 -1.7 19.2 -1.45 21.45 M-4.65 21.25 L-5.5 21.3 -4.9 20.0 -4.65 21.25" fill="#ff80bf" fill-rule="evenodd" stroke="none"/>
      <path d="M-9.4 15.9 L-7.0 16.5 Q-1.45 17.55 4.1 16.65 L3.6 21.9 3.5 21.95 3.55 22.0 3.5 22.75 2.15 22.15 1.9 17.65 0.85 22.4 Q0.0 22.75 -0.7 22.15 L-1.45 21.45 -1.7 19.2 -1.85 18.05 -2.55 20.05 -3.05 22.05 -3.5 22.1 -4.65 21.25 -4.9 20.0 -5.5 21.3 -6.35 21.4 -7.75 20.15 -9.4 20.45 -10.2 18.5 -10.6 19.5 -11.05 19.7 -11.55 19.4 -9.4 15.9 M7.15 22.6 L8.1 17.5 8.3 22.5 7.15 22.6" fill="#ffaed7" fill-rule="evenodd" stroke="none"/>
      <path d="M18.6 5.75 L17.0 6.35 17.75 5.3 18.6 5.75 M16.7 6.5 L14.35 7.3 15.15 6.2 15.4 6.0 16.7 6.5 M13.95 7.45 L9.55 8.95 10.45 7.6 11.6 8.1 12.8 6.85 13.95 7.45 M9.3 9.0 L7.45 9.85 8.3 8.7 9.3 9.0 M7.4 9.85 L5.75 10.35 5.3 10.5 6.15 9.25 7.4 9.85 M5.1 10.55 L2.4 11.1 0.3 9.75 -1.9 8.9 -0.35 8.35 0.3 9.75 2.1 9.35 2.8 10.55 4.1 9.65 5.1 10.55 M-2.15 8.85 L-3.95 8.3 -2.85 7.8 -2.15 8.85 M-4.45 8.15 L-6.05 7.65 -4.85 7.3 -4.45 8.15 M-6.45 7.5 L-8.4 6.85 -7.2 6.75 -6.45 7.5 M-8.85 6.7 L-10.45 6.15 -9.1 5.95 -8.85 6.7 M-10.65 6.05 L-12.15 5.55 -11.45 4.65 -10.65 6.05" fill="#ffa8d3" fill-rule="evenodd" stroke="none"/>
      <path d="M18.25 8.1 L18.4 6.5 19.65 6.0 Q20.65 10.3 18.6 14.1 L18.05 14.9 16.55 15.45 17.1 14.1 Q18.15 11.15 18.25 8.1 M3.65 12.65 L3.15 11.85 5.05 11.75 4.6 12.4 3.65 12.65 M3.0 15.0 L3.05 14.95 2.85 15.9 3.0 15.0 M3.7 14.75 L4.15 14.6 4.55 14.75 4.85 15.9 3.45 15.9 3.7 14.75" fill="#420021" fill-rule="evenodd" stroke="none"/>
      <path d="M18.6 5.75 L19.55 5.4 20.25 5.45 20.6 6.9 20.65 8.0 Q20.75 12.1 18.25 15.25 L17.0 15.55 13.75 16.5 13.6 16.5 12.05 16.7 9.7 16.85 4.1 16.65 Q-1.45 17.55 -7.0 16.5 L-9.4 15.9 -9.9 15.75 Q-12.8 12.4 -12.75 7.9 L-12.7 6.7 -12.15 5.55 -10.65 6.05 -10.45 6.15 -8.85 6.7 -8.4 6.85 -6.45 7.5 -6.05 7.65 -4.45 8.15 -3.95 8.3 -2.15 8.85 -1.9 8.9 0.3 9.75 2.4 11.1 5.1 10.55 5.2 10.6 5.3 10.5 5.75 10.35 7.4 9.85 7.45 9.85 9.3 9.0 9.55 8.95 13.95 7.45 14.35 7.3 16.7 6.5 17.0 6.35 18.6 5.75 M18.4 6.5 L16.35 7.25 Q10.8 8.9 6.05 11.95 L4.6 12.4 5.05 11.75 3.15 11.85 3.65 12.65 2.45 12.4 Q-2.05 8.95 -7.85 7.6 L-9.8 7.05 -11.85 6.25 Q-12.5 10.2 -10.8 13.75 L-9.9 15.35 -7.0 16.0 -3.15 16.5 1.8 16.2 2.85 15.9 3.05 14.95 3.7 14.75 3.45 15.9 4.85 15.9 4.55 14.75 5.2 14.9 5.45 16.4 8.6 16.5 10.25 16.5 Q13.5 16.35 16.55 15.45 L18.05 14.9 18.6 14.1 Q20.65 10.3 19.65 6.0 L18.4 6.5" fill="#280014" fill-rule="evenodd" stroke="none"/>
      <path d="M8.95 15.7 L10.2 14.0 Q13.5 10.15 18.25 8.1 18.15 11.15 17.1 14.1 L16.55 15.45 Q13.5 16.35 10.25 16.5 L8.6 16.5 8.85 15.9 9.6 16.1 8.95 15.7 M3.0 15.0 L2.85 15.9 1.8 16.2 -3.15 16.5 -3.3 15.7 Q-3.6 10.05 1.9 12.25 L-0.9 11.75 2.85 13.95 Q0.65 15.25 -1.6 16.5 L3.0 15.0" fill="#54012b" fill-rule="evenodd" stroke="none"/>
      <path d="M18.4 6.5 L18.25 8.1 Q13.5 10.15 10.2 14.0 L8.95 15.7 5.85 13.7 10.1 10.55 6.05 11.95 Q10.8 8.9 16.35 7.25 L18.4 6.5 M8.85 15.9 L8.6 16.5 5.45 16.4 5.2 14.9 8.85 15.9 M-3.15 16.5 L-7.0 16.0 Q-8.9 12.85 -9.5 9.1 L-9.8 7.05 -7.85 7.6 Q-2.05 8.95 2.45 12.4 L1.9 12.25 Q-3.6 10.05 -3.3 15.7 L-3.15 16.5" fill="#660033" fill-rule="evenodd" stroke="none"/>
      <path d="M-7.0 16.0 L-9.9 15.35 -10.8 13.75 Q-12.5 10.2 -11.85 6.25 L-9.8 7.05 -9.5 9.1 Q-8.9 12.85 -7.0 16.0" fill="#840042" fill-rule="evenodd" stroke="none"/>
    </g>
  </defs>
</svg>
